X:1
T:Deux valses mélancholiques
T:DEUX VALSES MÉLANCOLIQUES.
T:FRÉDÉRIC CHOPIN .
T:Second English Edition of Op.70/2 and Op.69/2
T:Public Domain
T:Public Domain
T:Public Domain
T:Public Domain
T:Public Domain
C:Frédéric Chopin
Z:Public Domain
%%score { ( 1 4 ) | ( 2 3 ) }
L:1/8
M:3/4
K:Ab
V:1 treble 
V:4 treble 
V:2 bass 
V:3 bass 
V:1
!p! c2 |: (c2 dcBA) | G3 F F2 | f2 (Bced) |({cde)} d3 c c2 | (=Bc){/e}(dcfg) | aA=egfF | %7
 (c_e) (dDcB) | (Gc=Bcd=d) | (e2 fe_dc) | B3 A A2 | a2 (cegf) | e3 =d d2 | c'3 b=a_a | agfe=dc | %15
 (cB=AB{/=d}cB) | (cB=AB{/=d}cB) | B2 (c'b=a_a) | (^fg=de) (Ec) | (BB,GcFB) |1 E3 d({cde} dc) :|2 %21
 (E4 =E2) || F4 G2 |({AB)} A2 (GAcB) | z2 (=DFEA) | C6 | (G,DEG df) |{/d-} [df]4 [de]2 | %28
({ef)} [ce]2 ([=B=d][ce][_df][ce]) | [ca]4 G2 | F4 G2 |({AB)} A2 (GAcB) | z2 (=DFEA) | C6 | %34
 G,CEGc>=d |{/G-} [Ge]4 [F=d]2- | [Fd]7/2 [Ec]/ [Ec]2- | [Ec]7/2 [Ec]/ ([Ec]2 | c2) F2 G2 | %39
({AB)} A2 (GAcB) | z2 (=DFEA) | C6 | (G,DEG) (df) |{/d-} [df]4 [de]2 | %44
({ef)} [ce]2 ([=B=d][ce][_df][ce]) | [ca]4 G2 | F4 G2 |({AB)} A2 (GAcB) | z2 (=DFEA) | C6 | %50
 z2 (=DEFG) | TF2 (=EFGA) | TA2 (GABc) |1 A4 c2 :|2SS A2 !fermata!z2 |][K:D]!p! f2- |: (fgfcdB) | %57
 ^A4 f2- | (fgfced) | B4 f2- | (fg^efbd') | (d'2 ^e2) d'2 | (d'2 =e2) c'2- | (c'b^a=gfc) | %64
 (dgfcdB) | ^A4 (f2- | fgfce>d) | B2 z2 !turn!f2 | (f'c')(d'^a)(bf) | (a>g B=c^de) | (gfBdcF) |1 %71
 (B^EF^ABd) :|2 B3 (FB_B) |: _B3 (Ace | !>!g3) (fcd) |{/d} !>!f3 (eBc) |{/c} e3 d{/d}cB | %77
 _B3 (Ace | g3) (fcd) | !>!f3 (eBc) | ^A3 (c!>!Gc) |{/c} F3 (^Ace) | (!>!g3 fcd) | (!>!f3 eBc) | %84
 e3 d (3(dcB) | _B3 (Ace | !>!g3) (fcd) | !>!f3 (ef'z/e'/) | (d'c'=c'b_ba | ^g=gfcd)B | %90
 ^A4 !>!^a2 | (^g=gfecd) | B2 z2 =a2 | (^g=g^efbd') | d'2 ^e2 d'2- | d'2 =e2 (c'2 | %96
 =c').b._b.a.^g.=g | .f.=f.e.d.c.B | ^A4 !>!g2- | (gf^efc>d) | B2 z2 Tf2({^ef)} | (f'c'd')(^abf) | %102
 (ag) (B=c^de) | (gfBdcF) |1 B3 (FB>_B) :|2 B2 !fermata!z2!fine! |][K:B][M:3/4]!p! F2 | (dedcde) | %108
 (g4 f2) | (dedcde) | (g4 f2) | f2 d'd' d'2 | c'2 ee e2 | d2 bb b2 | a2 cc [Ae]2 | %115
 ([Bd][ce][Bd][Ac][Bd][ce]) | ([Ag]4 [Af]2) | ([Bd][ce][Bd][Ac][Bd][ce]) | ([Ag]4 [ef]2) | %119
 [Bd]2 [db][db] [db]2 | a2 [Ac][Ac] [Ac]2 | [GB]2 [Bg][Bg] [Bg]2 | [Af]2 [FA][FA] [Ae]2 | %123
 ([Bd][ce][Bd][Ac][Bd][ce]) | ([Ag]4 [Af]2) | ([Bd][ce][Bd][Ac][Bd][ce]) | ([Ag]4 [ef]2) | %127
 [df]2 [fd'][fd'] [fd']2 | [ec']2 [Ae][Ae] [Ae]2 | [Bd]2 [db][db] [db]2 | [ca]2 [Ac][Ac] [Ff]2 | %131
 ([B=d][ce][Bd][Ac][Bd][ce]) | ([A=g]4 [Af]2) | ([B=d][ce][Bd][Ac][Bd][ce]) | ([A=g]4 [Af]2) | %135
 [Bf]3 [Be] [F=d]2 | [^E=d]3 [Ec] [EB]2 | [FA]2 [Ac]4 | [Ac]2 F2!D.C.! || %139
V:2
 z2 |: F,6 | E,6 | D,4 B,,2 | F,,2 [CA]2 [CA]2 | z2 [_B,CG]2 [B,CG]2 | z2 [A,CF]2 z2 | %7
 z2 [F,G,D]2 z2 | C,,2 [C,G,=E]2 z2 | z2 [C_E]2 [CE]2 | G,6 | F,6 | z2 [A,B,=D]2 [A,B,D]2 | %13
 z2 [A,B,F]2 [A,B,F]2 | z2 [G,B,E]2 [G,B,E]2 | z2 [A,B,F]2 [A,B,F]2 | z2 [G,B,E]2 [G,B,E]2 | %17
 z2 [A,B,=D]2 [A,B,D]2 | E,2 [CEG]2 [=A,C_G]2 | B,,2 [B,E]2 [_A,=D]2 |1 z2 [G,B,]2 [B,=E]2 :|2 %21
 z2 [G,B,E]2 z2 || D,6 | B,,6 | E,6 | E,,6 | E,,2 [E,G,D]2 [G,B,E]2 | E,2 [DEG]2 [DEG]2 | %28
 A,,2[K:treble] [EA]2 [EA]2 |[K:bass] A,,2 [E,A,C]2 [E,A,C]2 | D,6 | B,,6 | A,,6 | A,,6 | %34
 G,,2 [E,G,C]2 [E,G,C]2 | G,,2 [G,=B,EG]2 [G,B,EG]2 | C,2 [G,CG]2 [G,CG]2 | C,2 [G,CG]2 [G,CG]2 | %38
 D,6 | B,,6 | E,6 | E,,6 | E,,2 [E,G,D]2 [G,B,E]2 | E,2[K:treble] [DEG]2 [DEG]2 | %44
[K:bass] A,,2[K:treble] [EA]2 [EA]2 |[K:bass] A,,2 [E,A,C]2 [E,A,C]2 | D,6 | B,,6 | A,,6 | E,,6 | %50
 E,6 | E,6 | E,6 |1 A,,6 :|2 A,,2 !fermata![E,C]2 |][K:D] z2 |: B,,2 [F,B,D]2 [F,B,D]2 | %57
 C,2 [F,CE]2 [F,CE]2 | F,,2 [F,^A,CE]2 [F,A,CE]2 | B,,2 [F,B,D]2 [F,B,D]2 | %60
 B,,2 [F,B,D]2 [F,B,D]2 | B,,2 [^G,B,D]2 [G,B,D]2 | B,,2 [=G,B,CE]2 [G,B,CE]2 | %63
 B,,2 [F,CE]2 [F,^A,CE]2 | B,,2 [F,B,D]2 [F,B,D]2 | C,2 [F,CE]2 [F,^A,E]2 | ^A,,2 [F,CE]2 [F,CE]2 | %67
 B,,2 [F,B,D]2 z2 | D,2 [F,B,D]2 [F,B,D]2 | E,4 z2 | F,,2 [F,B,D]2 [F,^A,E]2 |1 %71
 B,,2 [F,B,D]2 z2 :|2 B,,2 [F,B,D]2 D,2 |: C,2 [A,EG]2 [A,EG]2 | D,2 [A,DF]2 z2 | %75
 A,,2 [A,EG]2 [A,EG]2 | D,2 [A,DF]2 z2 | C,2 [A,EG]2 [A,EG]2 | D,2 [A,DF]2 z2 | %79
 G,,2 [G,B,E]2 [G,B,E]2 | F,,2 [F,CE]2 [F,B,E]2 | F,,2 [F,CE]2 [F,^A,E]2 | B,,2 [F,B,D]2 z2 | %83
 A,,2 [A,CG]2 [A,CG]2 | D,2 [A,DF]2 z2 | C,2 [A,CG]2 [A,CG]2 | D,2 [A,DF]2 [A,DF]2 | %87
 F,,2 [G,B,E]2 z2 | F,,2 [F,^A,E]2 z2 | B,,2 [F,B,D]2 [F,B,D]2 | C,2 [F,CE]2 [F,CE]2 | %91
 F,,2 [F,^A,E]2 [F,A,E]2 | D,2 [F,B,D]2 [F,B,D]2 | D,2 [F,B,D]2 [F,B,D]2 | %94
 B,,2 [^G,B,D]2 [G,B,D]2 | B,,2 [=G,B,E]2 [G,B,E]2 | B,,2 [F,CE]2 [F,^A,CE]2 | %97
 B,,2 [F,B,D]2 [F,B,D]2 | C,2 [F,CE]2 [F,CE]2 | F,,2 [F,^A,E]2 [F,A,E]2 | B,,2 [F,B,D]2 z2 | %101
 D,,2 [D,F,B,]2 [D,F,B,]2 | E,,2 [E,G,=C]2 z2 | F,,2 [F,D]2 [F,^A,E]2 |1 B,,2 [F,D]2 z2 :|2 %105
 B,,2 !fermata![F,^D]2 |][K:B][M:3/4] z2 | B,,2 [F,B,D]2 [F,B,D]2 | A,,2 [F,CE]2 [F,CE]2 | %109
 B,,2 [F,B,D]2 [F,B,D]2 | A,,2 [F,CE]2 [F,CE]2 | B,,2 [F,B,D]2 [F,B,D]2 | F,,2 [F,A,E]2 [F,A,E]2 | %113
 B,,2 [F,B,D]2 [F,B,D]2 | F,,2 [F,CE]2 [F,CE]2 | B,,2 [F,B,D]2 [F,B,D]2 | F,,2 [F,CE]2 [F,CE]2 | %117
 B,,2 [F,B,D]2 [F,B,D]2 | F,,2 [F,CE]2 [F,CE]2 | B,,2 [F,D]2 [G,D]2 | C,2 [A,CF]2 [A,CF]2 | %121
 C,2 [G,C^E]2 [G,CE]2 | F,,2 [F,C=E]2 [F,CE]2 | B,,2 [F,B,D]2 [F,B,D]2 | F,,2 [F,CE]2 [F,CE]2 | %125
 B,,2 [F,B,D]2 [F,B,D]2 | F,,2 [F,CE]2 [F,CE]2 | B,,2 [F,B,D]2 [F,B,D]2 | F,,2 [F,CE]2 [F,CE]2 | %129
 B,,2 [F,B,D]2 [F,B,D]2 | F,,2 [F,CE]2 [F,A,E]2 | B,,2 [F,B,=D]2 [F,B,D]2 | F,,2 [F,CE]2 [F,CE]2 | %133
 B,,2 [F,B,=D]2 [F,B,D]2 | F,,2 [F,CE]2 [F,CE]2 | F,,2 [F,B,=D]2 [F,B,D]2 | %136
 =G,,2 [=G,B,]2 [G,B,]2 | F,,2 [F,C]2 [F,C]2 | F,,2 [F,A,CE]2 || %139
V:3
 x2 |: z2 [A,C]2 [A,C]2 | z2 [F,A,C]2 [F,A,C]2 | z2 [F,B,]4 | x6 | =E,6 | F,4 A,,2 | B,,4 B,,,2 | %8
 x6 | A,6 | z2 [A,CE]2 [A,CE]2 | z2 [A,CE]2 [A,CE]2 | B,,6 | B,,6 | B,,6 | B,,6 | B,,6 | B,,6 | %18
 x6 | x6 |1 E,4 [C,G,]2 :|2 E,4 x2 || z2 [F,B,D]2 [F,B,D]2 | z2 [F,A,D]2 [E,G,D]2 | %24
 z2 [A,C]2 [A,C]2 | z2 [E,A,C]2 [E,A,]2 | x6 | x6 | x2[K:treble] x4 |[K:bass] x6 | %30
 z2 [F,B,D]2 [F,B,D]2 | z2 [F,D]2 [E,G,D]2 | z2 [E,A,C]2 [E,A,C]2 | z2 [=D,F,]2 [D,F,]2 | x6 | x6 | %36
 x6 | x6 | z2 [A,B,]2 [A,B,]2 | z2 [F,A,D]2 [E,G,D]2 | z2 [A,C]2 [A,C]2 | z2 [E,A,C]2 [E,A,]2 | %42
 x6 | x2[K:treble] x4 |[K:bass] x2[K:treble] x4 |[K:bass] x6 | z2 [F,B,D]2 [F,B,D]2 | %47
 z2 [F,D]2 [E,G,D]2 | z2 [E,A,C]2 [E,A,C]2 | z2 [E,A,]2 [E,A,]2 | z2 [A,B,]2 [A,B,]2 | %51
 z2 [A,B,=D]2 [A,B,D]2 | z2 [_DE]2 [DE]2 |1 z2 [E,A,C]2 [=E,A,C]2 :|2 x4 |][K:D] x2 |: x6 | x6 | %58
 x6 | x6 | x6 | x6 | x6 | x6 | x6 | x6 | x6 | x6 | x6 | z2 [G,=C]2 x2 | x6 |1 x6 :|2 x6 |: x6 | %74
 x6 | x6 | x6 | x6 | x6 | x6 | x6 | x6 | x6 | x6 | x6 | x6 | x6 | x6 | x6 | x6 | x6 | x6 | x6 | %93
 x6 | x6 | x6 | x6 | x6 | x6 | x6 | x6 | x6 | x6 | x6 |1 x6 :|2 x4 |][K:B][M:3/4] x2 | x6 | x6 | %109
 x6 | x6 | x6 | x6 | x6 | x6 | x6 | x6 | x6 | x6 | x6 | x6 | x6 | x6 | x6 | x6 | x6 | x6 | x6 | %128
 x6 | x6 | x6 | x6 | x6 | x6 | x6 | x6 | x6 | x6 | x4 || %139
V:4
 x2 |: x6 | x6 | x6 | x6 | x6 | x6 | x6 | x6 | x6 | x6 | x6 | x6 | x6 | x6 | x6 | x6 | x6 | x6 | %19
 x6 |1 E6 :|2 x6 || x6 | x6 | x6 | x6 | x6 | x6 | x6 | x6 | x6 | x6 | x6 | x6 | x6 | x6 | x6 | x6 | %38
 x6 | x6 | x6 | x6 | x6 | x6 | x6 | x6 | x6 | x6 | x6 | x6 | x6 | x6 | x6 |1 x6 :|2 x4 |] %55
[K:D] x2 |: x6 | x6 | x6 | x6 | x6 | x6 | x6 | x6 | x6 | x6 | x6 | x6 | x6 | x6 | x6 |1 x6 :|2 %72
 x6 |: x6 | x6 | x6 | x6 | x6 | x6 | x6 | x6 | x6 | x6 | x6 | x6 | x6 | x6 | x6 | x6 | x6 | x6 | %91
 x6 | x6 | x6 | x6 | x6 | x6 | x6 | x6 | x6 | x6 | x6 | x6 | x6 |1 x6 :|2 x4 |][K:B][M:3/4] x2 | %107
 x6 | x6 | x6 | x6 | x6 | x6 | x6 | x6 | x6 | x6 | x6 | x6 | x6 | x6 | x6 | x6 | x6 | x6 | x6 | %126
 x6 | x6 | x6 | x6 | x6 | x6 | x6 | x6 | x6 | x6 | x6 | x6 | x4 || %139

